src/images/bridges/multichain.svg

<svg width="36" height="36" viewBox="0 0 36 36" fill="none" xmlns="http://www.w3.org/2000/svg">
<g clip-path="url(#clip0_5_60)">
<circle cx="18" cy="18" r="18" fill="url(#paint0_linear_5_60)"/>
<path d="M23.184 12.7152C23.6016 12.7152 23.976 12.8736 24.264 13.176L25.9056 14.8176C26.136 15.048 26.424 15.1632 26.7408 15.1632C27.0144 15.1632 27.2736 15.0768 27.4752 14.8896C27.7344 14.6736 27.864 14.3568 27.864 14.0256C27.864 13.7232 27.7488 13.4352 27.5328 13.2048L25.92 11.592C25.1856 10.8576 24.2064 10.4544 23.184 10.4544C22.1472 10.4544 21.168 10.8576 20.448 11.592L9.53279 22.5072C9.04319 22.9968 8.39519 23.2704 7.70399 23.2704C7.07039 23.2704 6.45119 23.0256 5.99039 22.5936C5.48639 22.1184 5.21279 21.4704 5.21279 20.7792C5.21279 20.1168 5.48639 19.4832 5.94719 19.008L6.43679 18.5184L7.37279 19.4544V15.8976H3.80159L4.80959 16.9056L4.36319 17.352C2.47679 19.2384 2.44799 22.2912 4.30559 24.1632C5.21279 25.0704 6.40799 25.5744 7.70399 25.5744C8.98559 25.5744 10.1808 25.0848 11.088 24.1776L22.0896 13.176C22.3632 12.888 22.7376 12.7296 23.1552 12.7296L23.184 12.7152Z" fill="white"/>
<path d="M31.608 17.3376L30.7872 16.5168L31.7952 15.5088H28.2384V19.0656L29.1744 18.1296L30.0384 18.9936C30.4992 19.4544 30.7728 20.1024 30.7728 20.7648C30.7728 21.456 30.4992 22.104 29.9952 22.5792C29.5344 23.0256 28.9296 23.256 28.2816 23.256C27.5904 23.256 26.9424 22.9824 26.4528 22.4928L20.6208 16.6608L19.008 18.2736L24.8832 24.1488C25.7904 25.056 26.9856 25.5456 28.2672 25.5456C29.5488 25.5456 30.7584 25.0416 31.6656 24.1344C33.48 22.2768 33.4512 19.224 31.5792 17.3232L31.608 17.3376Z" fill="white"/>
<path d="M8.1648 15.2208C8.3664 15.3936 8.6256 15.4944 8.8992 15.4944C9.2016 15.4944 9.5184 15.3648 9.7344 15.1488L11.7216 13.1616C12.0096 12.8736 12.384 12.7008 12.8016 12.7008C13.2192 12.7008 13.5936 12.8592 13.8816 13.1616L15.3504 14.6304L16.9632 13.0032L15.5376 11.5776C14.8032 10.8432 13.824 10.44 12.8016 10.44C11.7648 10.44 10.7856 10.8432 10.0656 11.5776L8.0928 13.536C7.8768 13.752 7.7616 14.04 7.7616 14.3568C7.7616 14.688 7.9056 14.9904 8.1648 15.2208Z" fill="white"/>
</g>
<defs>
<linearGradient id="paint0_linear_5_60" x1="2.3646e-08" y1="17.0847" x2="36" y2="16.9831" gradientUnits="userSpaceOnUse">
<stop stop-color="#734CE2"/>
<stop offset="0.682292" stop-color="#604DF1"/>
<stop offset="1" stop-color="#524DFB"/>
</linearGradient>
<clipPath id="clip0_5_60">
<rect width="36" height="36" fill="white"/>
</clipPath>
</defs>
</svg>

<svg xmlns="http://www.w3.org/2000/svg" width="36" height="36" fill="none"><g clip-path="url(#a)"><circle cx="18" cy="18" r="18" fill="url(#b)"/><path fill="#fff" d="M23.184 12.715c.418 0 .792.159 1.08.461l1.642 1.642c.23.23.518.345.835.345.273 0 .533-.086.734-.273.26-.216.389-.533.389-.864 0-.303-.115-.59-.331-.821l-1.613-1.613a3.86 3.86 0 0 0-2.736-1.138 3.8 3.8 0 0 0-2.736 1.138L9.533 22.507c-.49.49-1.138.763-1.829.763a2.52 2.52 0 0 1-1.714-.676 2.47 2.47 0 0 1-.777-1.815c0-.662.273-1.296.734-1.771l.49-.49.936.936v-3.556H3.802l1.008 1.008-.447.446c-1.886 1.886-1.915 4.94-.057 6.811a4.76 4.76 0 0 0 3.398 1.411c1.282 0 2.477-.49 3.384-1.396L22.09 13.176a1.45 1.45 0 0 1 1.065-.446z"/><path fill="#fff" d="m31.608 17.338-.82-.821 1.007-1.008h-3.557v3.557l.936-.936.864.864c.461.46.735 1.108.735 1.77 0 .692-.274 1.34-.778 1.815a2.43 2.43 0 0 1-1.713.677c-.692 0-1.34-.274-1.83-.763l-5.831-5.832-1.613 1.613 5.875 5.875a4.74 4.74 0 0 0 3.384 1.397 4.78 4.78 0 0 0 3.399-1.412c1.814-1.857 1.785-4.91-.087-6.81zM8.165 15.22c.201.174.46.274.734.274.303 0 .62-.13.835-.345l1.988-1.987c.288-.288.662-.461 1.08-.461.417 0 .792.158 1.08.46l1.468 1.47 1.613-1.628-1.425-1.425a3.86 3.86 0 0 0-2.736-1.138 3.8 3.8 0 0 0-2.736 1.138l-1.973 1.958a1.14 1.14 0 0 0-.331.82c0 .332.144.634.403.865"/></g><defs><linearGradient id="b" x1="0" x2="36" y1="17.085" y2="16.983" gradientUnits="userSpaceOnUse"><stop stop-color="#734CE2"/><stop offset=".682" stop-color="#604DF1"/><stop offset="1" stop-color="#524DFB"/></linearGradient><clipPath id="a"><path fill="#fff" d="M0 0h36v36H0z"/></clipPath></defs></svg>
